trunk/WorldWind/resources/milstd2525/icons/ems/ehoadha--------.svg

<?xml version="1.0" encoding="UTF-8" standalone="no"?>
<!--
Copyright (C) 2012 United States Government as represented by the Administrator of the
National Aeronautics and Space Administration.
All Rights Reserved.
-->

<!--
MIL-STD-2525 tactical symbol icon image. During icon composition this image is multiplied by the desired frame color 
(e.g. black), then drawn on top of the frame and fill.
-->

<svg
   xmlns:dc="http://purl.org/dc/elements/1.1/"
   xmlns:cc="http://creativecommons.org/ns#"
   xmlns:rdf="http://www.w3.org/1999/02/22-rdf-syntax-ns#"
   xmlns:svg="http://www.w3.org/2000/svg"
   xmlns="http://www.w3.org/2000/svg"
   xmlns:sodipodi="http://sodipodi.sourceforge.net/DTD/sodipodi-0.dtd"
   xmlns:inkscape="http://www.inkscape.org/namespaces/inkscape"
   height="400px"
   viewBox="0 0 400 400"
   width="400px"
   id="svg2"
   version="1.1"
   inkscape:version="0.48.2 r9819"
   sodipodi:docname="ehoadha--------.svg">
  <metadata
     id="metadata12">
    <rdf:RDF>
      <cc:Work
         rdf:about="">
        <dc:format>image/svg+xml</dc:format>
        <dc:type
           rdf:resource="http://purl.org/dc/dcmitype/StillImage" />
      </cc:Work>
    </rdf:RDF>
  </metadata>
  <defs
     id="defs10" />
  <sodipodi:namedview
     pagecolor="#ffffff"
     bordercolor="#666666"
     borderopacity="1"
     objecttolerance="10"
     gridtolerance="10"
     guidetolerance="10"
     inkscape:pageopacity="0"
     inkscape:pageshadow="2"
     inkscape:window-width="640"
     inkscape:window-height="480"
     id="namedview8"
     showgrid="false"
     inkscape:zoom="0.59"
     inkscape:cx="200"
     inkscape:cy="200"
     inkscape:window-x="0"
     inkscape:window-y="0"
     inkscape:window-maximized="0"
     inkscape:current-layer="svg2" />
  <g
     transform="matrix(100,0,0,100,73,69)"
     id="g4"
     style="stroke:#000000;stroke-width:0.06;stroke-miterlimit:4;stroke-opacity:1;stroke-dasharray:0.12, 0.06;stroke-dashoffset:0">
    <path
       inkscape:connector-curvature="0"
       d="M 1.88928,0.768492 2.16865,1.53824 1.60576,1.53813 z M 0.66984,0.768622 0.948895,1.53827 0.392974,1.53695 z m 0.015638,-0.084421 -0.020327,0 0,-0.005083 z m 0,0 0.075945,0.012145 0.015531,-0.00198 0.238406,-0.033634 0.02585,0.003142 c 0.07864,0 0.08161,0.091472 0.10164,0.091472 l 0.07115,0 0,1.163774 -0.274423,0 0,0.05589 -0.111803,0 0,0.06099 -0.091476,0 0,0.09656 1.087542,0 0,-0.10164 -0.09656,0 0,-0.05591 -0.1118,0 0,-0.05589 -0.28459,0 0,-1.163774 0.08131,0 c 0.02354,0 0.01476,-0.091472 0.1118,-0.091472 l 0.01525,0 0.23389,0.029669 0.02529,8.23e-4 0.0764,-0.008984 C 1.84655,0.742787 1.81765,0.839862 1.79398,0.903358 1.76635,0.977499 1.74428,1.04998 1.71509,1.1243 1.68591,1.19859 1.66292,1.26977 1.63517,1.34422 1.62279,1.37744 1.60685,1.41838 1.59579,1.45221 1.58892,1.4732 1.58148,1.48896 1.57548,1.50813 1.56617,1.53795 1.57221,1.53797 1.53417,1.53797 1.58534,1.61438 1.72568,1.71075 1.85433,1.71075 l 0.06098,0 c 0.12855,0 0.27464,-0.0972 0.32525,-0.17278 l -0.02541,0 -0.317,-0.858148 c 0.0243,-0.002567 0.06798,-0.020878 0.06798,-0.041359 0,-0.020362 -0.03612,0.005079 -0.06098,0.005079 l -0.01016,0 c -0.13133,0 -0.23137,-0.10672 -0.36591,-0.10672 l -0.03049,0 c -0.06969,0 -0.12972,0.033055 -0.1677,0.066067 C 1.31194,0.593798 1.3004,0.596873 1.3004,0.567314 1.3004,0.557613 1.32616,0.4857 1.33089,0.475842 L 1.28316,0.329094 1.27499,0.328464 C 1.27311,0.350995 1.24714,0.425369 1.23875,0.449783 1.21829,0.509389 1.25466,0.512428 1.25466,0.567314 l 0,0.015248 c 0,0.018102 -0.01117,0.013492 -0.02541,0.020327 C 1.19015,0.568904 1.13333,0.536822 1.06154,0.536822 l -0.03049,0 c -0.138068,0 -0.235989,0.10672 -0.365895,0.10672 l -0.015248,0 c -0.039418,0 -0.057666,-0.034784 -0.060981,0.005082 L 0.658261,0.682837 C 0.59917,0.806038 0.555111,0.980262 0.499033,1.11775 0.469277,1.19069 0.447119,1.26299 0.418167,1.33671 0.403293,1.37459 0.394139,1.40775 0.378982,1.44491 0.366895,1.47454 0.363218,1.53711 0.324663,1.53797 c 0.050787,0.07584 0.184524,0.17278 0.31,0.17278 l 0.066063,0 c 0.133402,0 0.266906,-0.09325 0.320164,-0.17278 l -0.030491,0 -0.304917,-0.853771 z"
       style="fill:#ffffff;stroke:#000000;stroke-width:0.06;stroke-miterlimit:4;stroke-opacity:1;stroke-dasharray:0.12, 0.06;stroke-dashoffset:0"
       id="path6" />
  </g>
</svg>

<?xml version="1.0"?>
<!--
Copyright (C) 2012 United States Government as represented by the Administrator of the
National Aeronautics and Space Administration.
All Rights Reserved.
-->

<!DOCTYPE svg PUBLIC "-//W3C//DTD SVG 1.1//EN" "http://www.w3.org/Graphics/SVG/1.1/DTD/svg11.dtd" >
<!--
MIL-STD-2525 tactical symbol icon image. During icon composition this image is multiplied by the desired frame color 
(e.g. black), then drawn on top of the frame and fill.
-->
<svg xmlns:xlink="http://www.w3.org/1999/xlink" height="400px" viewBox="0 0 400 400" width="400px"><g transform="scale(100) translate(0.73 0.69)"><path d="M1.88928 0.768492 L2.16865 1.53824 L1.60576 1.53813 zM0.66984 0.768622 L0.948895     1.53827 L0.392974 1.53695 zM0.685478 0.684201 L0.665151 0.684201 L0.665151 0.679118     zM0.685478 0.684201 L0.761423 0.696346 L0.776954 0.694366 L1.01536 0.660732     L1.04121 0.663874 C1.11985 0.663874 1.12282 0.755346 1.14285 0.755346     L1.214 0.755346 L1.214 1.91912 L0.939577 1.91912 L0.939577 1.97501 L0.827774     1.97501 L0.827774 2.036 L0.736298 2.036 L0.736298 2.13256 L1.82384 2.13256     L1.82384 2.03092 L1.72728 2.03092 L1.72728 1.97501 L1.61548 1.97501 L1.61548     1.91912 L1.33089 1.91912 L1.33089 0.755346 L1.4122 0.755346 C1.43574 0.755346     1.42696 0.663874 1.524 0.663874 L1.53925 0.663874 L1.77314 0.693543 L1.79843     0.694366 L1.87483 0.685382 C1.84655 0.742787 1.81765 0.839862 1.79398     0.903358 C1.76635 0.977499 1.74428 1.04998 1.71509 1.1243 C1.68591 1.19859 1.66292     1.26977 1.63517 1.34422 C1.62279 1.37744 1.60685 1.41838 1.59579 1.45221     C1.58892 1.4732 1.58148 1.48896 1.57548 1.50813 C1.56617 1.53795 1.57221     1.53797 1.53417 1.53797 C1.58534 1.61438 1.72568 1.71075 1.85433 1.71075 L1.91531     1.71075 C2.04386 1.71075 2.18995 1.61355 2.24056 1.53797 L2.21515 1.53797     L1.89815 0.679822 C1.92245 0.677255 1.96613 0.658944 1.96613 0.638463 C1.96613     0.618101 1.93001 0.643542 1.90515 0.643542 L1.89499 0.643542 C1.76366     0.643542 1.66362 0.536822 1.52908 0.536822 L1.49859 0.536822 C1.4289 0.536822     1.36887 0.569877 1.33089 0.602889 C1.31194 0.593798 1.3004 0.596873 1.3004     0.567314 C1.3004 0.557613 1.32616 0.4857 1.33089 0.475842 L1.28316 0.329094     L1.27499 0.328464 C1.27311 0.350995 1.24714 0.425369 1.23875 0.449783 C1.21829     0.509389 1.25466 0.512428 1.25466 0.567314 L1.25466 0.582562 C1.25466     0.600664 1.24349 0.596054 1.22925 0.602889 C1.19015 0.568904 1.13333 0.536822     1.06154 0.536822 L1.03105 0.536822 C0.892982 0.536822 0.795061 0.643542 0.665155     0.643542 L0.649907 0.643542 C0.610489 0.643542 0.592241 0.608758 0.588926     0.648624 L0.658261 0.682837 C0.59917 0.806038 0.555111 0.980262 0.499033     1.11775 C0.469277 1.19069 0.447119 1.26299 0.418167 1.33671 C0.403293 1.37459     0.394139 1.40775 0.378982 1.44491 C0.366895 1.47454 0.363218 1.53711 0.324663     1.53797 C0.37545 1.61381 0.509187 1.71075 0.634663 1.71075 L0.700726 1.71075     C0.834128 1.71075 0.967632 1.6175 1.02089 1.53797 L0.990399 1.53797 L0.685482     0.684199 z" style="fill:rgb(255,255,255)"/></g></svg>
